X: 143
T: Alaster Moor
B: 204 Favourite Country Dances
N: Published by Straight & Skillern, London ca.1775
F: http://imslp.org/wiki/204_Favourite_Country_Dances_(Various) p.72 #143
Z: 2014 John Chambers <jc:trillian.mit.edu>
N: The 2nd strain has initial repeat but no final repeat; not fixed.
M: C
L: 1/8
K: Gm
% - - - - - - - - - - - - - - - - - - - - - - - - -
|:\
G2g2 fdcd | BF2D  F2F2 |\
G2g2 fdcd | BG2^F G2G2 :|\
|:\
FGBc dBcd | BF2D  F2F2 |
GABc dBcd | BG2^F G2G2 |\
FGBc dBcd | BF2D  F2F2 |\
gdfc dBcA | BG2^F G2G2 |]
% - - - - - - - - - - - - - - - - - - - - - - - - -
%%begintext align
%% Cast off 2 Cu. .| Cast up again :| Cross over
%% 2 Cu. lead up and Cast off .:| Set Corners
%% and turn :|| and hey .||:
%%endtext

%%sep 1 1 500
%%sep 1 1 500
